src/pos-icons/hand-pointing-up.svg

<svg height="24" viewBox="0 0 24 24" width="24" xmlns="http://www.w3.org/2000/svg"><path d="m14 3v10l3.2-1.69.22-.03c.29 0 .55.12.74.32l.74.77-4.9 4.2c-.26.27-.61.43-1 .43h-6.5c-.77 0-1.5-.7-1.5-1.5v-4.36c0-.61.35-1.14.85-1.34l4.94-2.2 1.21-.13v-4.47a1 1 0 0 1 1-1 1 1 0 0 1 1 1m-9 16h8v3h-8z"/></svg>

<?xml version="1.0" encoding="UTF-8"?><!DOCTYPE svg PUBLIC "-//W3C//DTD SVG 1.1//EN" "http://www.w3.org/Graphics/SVG/1.1/DTD/svg11.dtd"><svg xmlns="http://www.w3.org/2000/svg" xmlns:xlink="http://www.w3.org/1999/xlink" version="1.1" id="mdi-hand-pointing-up" width="24" height="24" viewBox="0 0 24 24"><path d="M14,3V13L17.2,11.31L17.42,11.28C17.71,11.28 17.97,11.4 18.16,11.6L18.9,12.37L14,16.57C13.74,16.84 13.39,17 13,17H6.5C5.73,17 5,16.3 5,15.5V11.14C5,10.53 5.35,10 5.85,9.8L10.79,7.6L12,7.47V3A1,1 0 0,1 13,2A1,1 0 0,1 14,3M5,19H13V22H5V19Z" /></svg>
